X:1
T:Lob der Tranen
T:Lob der Tränen
T:F. Schubert
T:D. 711
C:F. Schubert
%%score 1 { 2 | ( 3 4 ) }
L:1/8
Q:1/4=62
M:3/4
K:D
V:1 treble nm="Oboe" snm="Ob."
V:2 treble nm="Piano" snm="Pno."
V:3 bass 
V:4 bass 
V:1
"^Andante" z4 |: z2 | z6 | z6 | z6 | z2 z2 d3/2 c/ | c>B B2 B3/2 A/ | A>G G2 B3/2 A/ | %8
 A3/2 F/ A>d c>e | d4 e3/2 d/ | c>B B2 =c3/2 B/ | A>G G2 B3/2 A/ | A3/2 F/ A>d c>e | d4 (3de f | %14
 e3 c{/e} (3dcB | B>c A2 (3de f | e3 c{/e} (3dc B | (B2 A) z A3/2 A/ | e3 d{/d} c>B | %19
 B>A A2 A3/2 A/ | d3 d e3/2 ^e/ | f4 (3=ed B | A3 d c3/2 e/ | d4 :: z2 | z6 | z6 | z6 | %28
 z2 z2 d3/2 c/ | c>B B2 B3/2 A/ | A>G G2 B3/2 A/ | A3/2 F/ A>d c>e | d4 e3/2 d/ | c>B B2 =c3/2 B/ | %34
 A>G G2 B3/2 A/ | A3/2 F/ A>d c>e | d4 (3de f | e3 c{/e} (3dcB | B>c A2 (3de f | e3 c{/e} (3dc B | %40
 (B2 A) z A3/2 A/ | e3 d{/d} c>B | B>A A2 A3/2 A/ | d3 d e3/2 ^e/ | f4 (3=ed B | A3 d c3/2 e/ | %46
 d4 :| z2 | z6 | z6 | z6 | z4 |] %52
V:2
 z4 |: ([Ff]>d) | [_B_b]2- (3[Bb]gd (3[^c^c']ae | [dd']4!8va(! [ff']>d' | %4
 [_b_b']2- (3[bb']g'd' (3[^c'^c'']a'[e'e''] | [d'd'']4!8va)! z2 | z6 | z6 | z6 | z6 | z6 | z6 | %12
 z6 | z6 | z6 | z6 | z6 | z6 | (!>![CE]3 =D"_dim." E>D) |!pp! D>C C2 z2 | z6 | z6 | z6 | z4 :: %24
 [Ff]>d | [_B_b]2- (3[Bb]gd (3[^c^c']ae | [dd']4!8va(! ([ff']>d') | %27
 [_b_b']2- (3[bb']g'd' (3[^c'^c'']a'[e'e''] | [d'd'']4!8va)! z2 | z6 | z6 | z6 | z6 | z6 | z6 | %35
 z6 | z6 | z6 | z6 | z6 | z6 | (!>![CE]3 =D E>D) | D>C C2 z2 | z6 | z6 | z6 | z4 :| ([Ff]>d) | %48
 [_B_b]2- (3([Bb]gd (3[^c^c']ae) | [dd']4!8va(! ([ff']>d') | %50
 [_b_b']2- (3([bb']g'd' (3[^c'^c'']a'[e'e'']) | !fermata![d'd'']4!8va)! |] %52
V:3
!p! (3F,A,D (3F,A,D |: (3A,=CD | (3G,_B,D (3G,B,D (3G,A,^C | (3F,A,D (3F,A,D (3A,=CD | %4
 (3G,_B,D (3G,B,D (3G,A,^C | (3F,A,D (3F,A,D (3F,A,D | (3G,B,D (3G,B,D (3A,B,^D | %7
 (3G,B,E (3G,B,E (3G,A,E | (3F,A,D (3F,A,D (3G,A,C | (3F,A,D (3F,A,D (3F,A,D | %10
 (3G,B,D (3G,B,D (3A,B,^D | (3G,B,E (3G,B,E (3G,A,E | (3F,A,D (3F,A,D (3G,A,C | %13
 (3F,A,D (3F,A,D (3F,A,D | (3z [E,A,C][E,A,C] (3[E,A,C][E,A,C][E,A,C] (3[E,^G,D][E,G,D][E,G,D] | %15
 (3z [E,A,C][E,A,C] (3[E,A,C][E,A,C][E,A,C] (3[F,A,D][F,A,D][F,A,D] | %16
 (3z [E,A,C][E,A,C] (3[E,A,C][E,A,C][E,A,C] (3[E,^G,D][E,G,D][E,G,D] | %17
!<(! (3z [E,A,C][E,A,C] (3[E,A,C][E,A,C][E,A,C] (3[F,A,C][=F,A,D][^F,A,^D]!<)! | [G,A,]4 z2 | %19
 [G,A,]4 z2 |!<(! (3F,A,D (3F,A,D (3A,C^E!<)! | (3!>!F,CF (3F,DF (3G,B,D | %22
!p! (3F,A,D (3F,A,D (3G,A,C | (3F,A,D (3F,A,D ::!p! (3A,=CD | (3G,_B,D (3G,B,D (3G,A,^C | %26
 (3F,A,D (3F,A,D (3A,=CD | (3G,_B,D (3G,B,D (3G,A,^C | (3F,A,D (3F,A,D (3F,A,D | %29
 (3G,B,D (3G,B,D (3A,B,^D | (3G,B,E (3G,B,E (3G,A,E | (3F,A,D (3F,A,D (3G,A,C | %32
 (3F,A,D (3F,A,D (3F,A,D | (3G,B,D (3G,B,D (3A,B,^D | (3G,B,E (3G,B,E (3G,A,E | %35
 (3F,A,D (3F,A,D (3G,A,C | (3F,A,D (3F,A,D (3F,A,D | %37
 (3z [E,A,C][E,A,C] (3[E,A,C][E,A,C][E,A,C] (3[E,^G,D][E,G,D][E,G,D] | %38
 (3z [E,A,C][E,A,C] (3[E,A,C][E,A,C][E,A,C] (3[F,A,D][F,A,D][F,A,D] | %39
 (3z [E,A,C][E,A,C] (3[E,A,C][E,A,C][E,A,C] (3[E,^G,D][E,G,D][E,G,D] | %40
!<(! (3z [E,A,C][E,A,C] (3[E,A,C][E,A,C][E,A,C] (3[F,A,C][=F,A,D][^F,A,^D]!<)! | [G,A,]4 z2 | %42
 [G,A,]4 z2 |!<(! (3F,A,D (3F,A,D (3A,C^E!<)! | (3!>!F,CF (3F,DF (3G,B,D | %45
!p! (3F,A,D (3F,A,D (3G,A,C | (3F,A,D (3F,A,D :| (3A,=CD | (3G,_B,D (3G,B,D (3G,A,^C | %49
 (3F,A,D (3F,A,D (3A,=CD | (3G,_B,D (3G,B,D (3G,A,^C | !fermata![F,A,D]4 |] %52
V:4
 D,4- |: D,2 | D,6 | D,6 | D,6 | D,6 | [G,,,G,,]4 [B,,,B,,]2 | [E,,E,]4 [C,,C,]2 | %8
 [D,,D,]2 [F,,,F,,]2 [A,,,A,,]2 | [D,,D,]4 z2 | [G,,,G,,]4 [B,,,B,,]2 | [E,,E,]4 [C,,C,]2 | %12
 [D,,D,]2 [F,,,F,,]2 [A,,,A,,]2 | [D,,D,]4 z2 | [A,,,A,,]4 z2 | [A,,,A,,]4 z2 | [A,,,A,,]4 z2 | %17
 [A,,,A,,]4 z2 | [A,,,A,,]4 [A,,,A,,]2 | [A,,,A,,]4 z2 | [F,,,F,,]4 [A,,,A,,]2 | %21
 [^A,,,^A,,]2 [B,,,B,,]2 [G,,,G,,]2 | [=A,,,=A,,]4 [A,,,A,,]2 | [D,,D,-]4 :: D,2 | D,6 | D,6 | %27
 D,6 | D,6 | [G,,,G,,]4 [B,,,B,,]2 | [E,,E,]4 [C,,C,]2 | [D,,D,]2 [F,,,F,,]2 [A,,,A,,]2 | %32
 [D,,D,]4 z2 | [G,,,G,,]4 [B,,,B,,]2 | [E,,E,]4 [C,,C,]2 | [D,,D,]2 [F,,,F,,]2 [A,,,A,,]2 | %36
 [D,,D,]4 z2 | [A,,,A,,]4 z2 | [A,,,A,,]4 z2 | [A,,,A,,]4 z2 | [A,,,A,,]4 z2 | %41
 [A,,,A,,]4 [A,,,A,,]2 | [A,,,A,,]4 z2 | [F,,,F,,]4 [A,,,A,,]2 | %44
 ([^A,,,^A,,]2 [B,,,B,,]2) [G,,,G,,]2 | [=A,,,=A,,]4 [A,,,A,,]2 | [D,,D,-]4 :| D,2- | D,6 | D,6 | %50
 D,6 | D,4 |] %52

